X: 19131
T: Irish Washerwoman, The
R: jig
M: 6/8
K: Gmajor
d2c|BGB dGB|DGB dcB|c2 A DGA|cBc edc|
BGB dGB|DGB dcB|cgc Adc|BGG G2 c|
BGG DGG|BGB dcB|c2 A DGA|cBc edc|
BGB dGB|DGB dBG|c (3cBc Adc|BGG G2 g||
gfa gdg|gfg bag|fdf adf|Adf agf|
g2 a fdg|ecA dBG|c (3cBc Adc|BGG G3|
gfa gdg|gfg bag|fdf adf|Adf agf|
g2 a fdg|ecA dBG|cBc ABc|dfa gdc||
(AB) G DGG|BGB dcB|c2 A DGA|cBc edc|
BGB dGB|DGB dcB|c2 E Adc|BGG g2 c||
BGG DGG|BGB dcB|c2 A DGA|cBc edc|
BGB dGB|DGB dcB|cgc Adc|BGG G2 g||
gfa gdg|gfg bag|fdf adf|Adf agf|
g2 a fdg|ecA dBG|c (3cBc Adc|BGG G3|
gfa gdg|gfg bag|fdf adf|Adf agf|
gga fdg|ecA dBG|ccc ABc|dfa gdc||
BGB dGB|DGB dcB|c2 A DGA|cBc edc|
BGB dGB|DGB dBG|c2E Adc|B[GB][GB] [G3B3]||

